X:5
T:The Leprechaun / The Kilclougher / Tobin's Jig
M:6/8
L:1/8
S:The Kilclogger: Paul Groff; Tobin's: common version
S:The Leprechaun: Kitty Hayes, Providence (A fig for a kiss)
R:Jig
Z:Julie Ross
K:G
"The Leprechaun"
g | edB dBA | GAB AGE | DEG AGA | BAG A2d |
edB dBA | GBG AGE | DEG AGA |1 BGF G2 :|2 BGG GED ||
|: GBd ~g3 | aga bge | gab age | deg a2b |
age dBA | GBG AGE | DEG AGA |1 BGF G2D :|2 BGG G2 ||
K:G
"The Kilcloggher Jig"
B |: AGE G2E | c2E EFG | DED D2E | GED D2B |
AGE G2E | c2E DEG | A3 BGE | ABA A2B :|
|: c2B c2d | ecA ABc | BAG GAB | dBG G2B |
c2B c2d | ecA ABc | BAG GAB | A3 A2B :|
K:Dmaj
"Tobin's Jig"
|:DFA dcd|ecA efg|fef gfg|ecA GFE|
DFA dcd|ecA efg|fef gfg|edc d2A:|
|: dfa agf|efg efg|fef gfg|ecA GFE|
DFA dcd|ecA efg|fef gfg|edc d3:|
